X: 3287
T: Tyrolervals II
B:[[Notböcker/Melodier til gamle danske Almuedanse for Violin solo]]
O:Danmark
Z:Søren Bak Vestergaard
M: 3/4
L: 1/8
K: G
GGBBdd|db g2 (fg)|(a2 !4!c'2) f2|(g2 b2) g2|GGBBdd|\
db g2 (fg)|(a2 c'2) f2|g4 z2:| |:ddffaa|ddggbb|ddffaa|\
ddggbb|GGBBdd|db g2 (fg)|(a2 c'2) f2|g4 z2:| |:d2 (^cded)|\
gd B2 B2|d2 =cB A2|e2 dc B2|d2 (^cded)|gd B2 B2|d2 (=cB)(cA)|G4 z2:|\
|:B2 dc A2|c2 ed B2|B2 dc A2|c2 ed B2|d2 (^cded)|gd B2 B2|d2 (=cB)(cA)|G4 z2:|
(:musicend:)
(:music:)
